X:1
T:When we, our weary limbs to rest
T:John Broderip
T:p43, A New Set of Anthems and Psalm Tunes, London: [1745]
T:This edition by Edmund Gooch released into the public domain, March 2015.
T:When we, our weary limbs to rest
T:Psalm the 137th. New Ver.
C:John Broderip
Z:p43, A New Set of Anthems
Z:and Psalm Tunes,
Z:London: [1745]
%%score [ 1 2 3 4 ]
L:1/8
M:3/2
K:Gmin
V:1 treble nm="[Treble]"
V:2 treble nm="[Alto]"
V:3 treble-8 transpose=-12 nm="[Tenor]"
V:4 bass nm="[Bass]"
V:1
"^Very Slow" B4 | B8 ^F4 | G8 e4 | (d4 A4) c4 | B8 B4 | B8 B4 | B8 d4 | F8 E4 | D8 B4 | %9
w: How|shall we|tune our|voice _ to|sing Or|touch our|harps with|skil- ful|hands? Shall|
w: When|we, our|wea- ry|limbs _ to|rest, Sat|down by|proud Eu-|phra- tes’|stream, We|
w: Our|harps, that|when with|joy _ we|sung Were|wont their|tune- ful|parts to|bear, With|
 (_A4 G4) d4 | (e4 c4) ^F4 | G8 (c2 B2) | A8 E4 | (E4 D4) d4 | (d4 c4) B4 | (A4 G4) ^F4 | G8 |] %17
w: hymns _ of|joy _ to|God our _|King Be|sung _ by|slaves _ in|fo- * reign|lands?|
w: wept, _ with|dole- * ful|thoughts op- *|press’d, And|Si- * on|was _ our|mourn- * ful|theme.|
w: si- * lent|strings _ ne-|glec- ted _|hung On|wil- * low|trees _ that|wi- * ther’d|there.|
V:2
 D4 | D8 D4 | D8 G4 | (G4 ^F4) F4 | G8 D4 | G8 G4 | F8 B,4 | C8 C4 | B,8 F4 | F8 G4 | G8 D4 | %11
w: How|shall we|tune our|voice _ to|sing Or|touch our|harps with|skil- ful|hands? Shall|hymns of|joy to|
w: When|we, our|wea- ry|limbs _ to|rest, Sat|down by|proud Eu-|phra- tes’|stream, We|wept, with|dole- ful|
w: Our|harps, that|when with|joy _ we|sung Were|wont their|tune- ful|parts to|bear, With|si- lent|strings ne-|
 (D4 C4) C4 | D8 B,4 | A,8 D4 | G8 G4 | E4 D8 | D8 |] %17
w: God _ our|King Be|sung by|slaves in|fo- reign|lands?|
w: thoughts _ op-|press’d, And|Si- on|was our|mourn- ful|theme.|
w: glec- * ted|hung On|wil- low|trees that|wi- ther’d|there.|
V:3
 G4 | G8 A4 | B8 G4 | d8 d4 | d8 d4 | d8 e4 | B8 B4 | A8 A4 | B8 d4 | =B8 G4 | (E4 e4) (d2 c2) | %11
w: How|shall we|tune our|voice to|sing Or|touch our|harps with|skil- ful|hands? Shall|hymns of|joy _ to _|
w: When|we, our|wea- ry|limbs to|rest, Sat|down by|proud Eu-|phra- tes’|stream, We|wept, with|dole- * ful _|
w: Our|harps, that|when with|joy we|sung Were|wont their|tune- ful|parts to|bear, With|si- lent|strings _ ne- *|
 (B4 c2 B2) (A2 G2) | ^F8 G4 | A8 B4 | (B4 e4) d4 | (c4 B4) A4 | G8 |] %17
w: God _ _ our _|King Be|sung by|slaves _ in|fo- * reign|lands?|
w: thoughts _ _ op- *|press’d, And|Si- on|was _ our|mourn- * ful|theme.|
w: glec- * * ted _|hung On|wil- low|trees _ that|wi- * ther’d|there.|
V:4
 G,4 | G,8 D,4 | B,,8 C,4 | D,8 D,4 | G,,8 G,4 | (G,4 F,4) E,4 | (D,4 C,4) B,,4 | F,8 F,,4 | %8
w: How|shall we|tune our|voice to|sing Or|touch _ our|harps _ with|skil- ful|
w: When|we, our|wea- ry|limbs to|rest, Sat|down _ by|proud _ Eu-|phra- tes’|
w: Our|harps, that|when with|joy we|sung Were|wont _ their|tune- * ful|parts to|
 B,,8 B,,4 | %9
w: hands? Shall|
w: stream, We|
w: bear, With|
"^If I to mention thee forbear,Eternal silence seize my tongue;Or if I sing one cheerful air,Till thy deliv'rance is my song!" =B,,8 B,,4 | %10
w: hymns of|
w: wept, with|
w: si- lent|
 C,8 D,4 | %11
w: joy to|
w: dole- ful|
w: strings ne-|
 E,8"^Notes:Only the first verse of the text is given in the source: an editorialselection of subsequent verses have here been added. The altoand tenor parts are printed in the alto and tenor clefs respectivelyin the source." E,4 | %12
w: God our|
w: thoughts op-|
w: glec- ted|
 D,8 G,4 | ^F,8 G,4 | E,8 B,,4 | C,4 D,8 | G,8 |] %17
w: King Be|sung by|slaves in|fo- reign|lands?|
w: press’d, And|Si- on|was our|mourn- ful|theme.|
w: hung On|wil- low|trees that|wi- ther’d|there.|

